img/blog/general/tg.svg

<svg width="120" height="120" viewBox="0 0 120 120" fill="none" xmlns="http://www.w3.org/2000/svg">
<rect width="120" height="120" rx="10" fill="#28A8EA"/>
<path fill-rule="evenodd" clip-rule="evenodd" d="M55.7064 40.832C35.9579 48.4314 19.38 54.9075 18.8669 55.2235C17.8077 55.8759 17 56.9391 17 57.6813C17 57.9759 17.2791 58.4621 17.6745 58.8559C18.2185 59.3978 18.9249 59.7092 21.328 60.467C22.9664 60.9834 27.3454 62.3678 31.0592 63.543L37.8112 65.6799L58.3315 52.7495C69.6175 45.6378 79.2685 39.6019 79.7779 39.3362C80.9377 38.7311 82.1145 38.7613 82.2058 39.3985C82.2538 39.7325 78.6047 43.1102 65.169 55.1683C55.2634 64.058 48.0347 70.6928 47.9851 70.94C47.8972 71.3773 46.8364 87.807 46.8421 88.6404C46.8461 89.2204 47.2631 89.2294 48.4875 88.6761C49.0853 88.406 50.4964 87.2011 52.5012 85.2491C54.2018 83.5933 56.3949 81.4635 57.375 80.5163L59.1569 78.7941L68.284 85.5195C73.3037 89.2186 77.8178 92.4243 78.3151 92.6435C79.6653 93.2389 81.4159 93.072 82.267 92.2664C82.6167 91.9353 83.0755 91.3305 83.2865 90.9221C83.4974 90.5137 84.3205 87.1462 85.1157 83.4387C95.1665 36.5732 96.0612 32.2308 95.997 30.6325C95.9268 28.8883 95.6158 28.2692 94.3938 27.4407C92.923 26.4436 94.6684 25.8394 55.7064 40.832Z" fill="white"/>
</svg>

<svg width="120" height="120" fill="none" xmlns="http://www.w3.org/2000/svg"><rect width="120" height="120" rx="10" fill="#28A8EA"/><path fill-rule="evenodd" clip-rule="evenodd" d="M55.706 40.832c-19.748 7.6-36.326 14.075-36.84 14.392C17.809 55.876 17 56.939 17 57.68c0 .295.28.781.674 1.175.544.542 1.25.853 3.654 1.611 1.638.516 6.017 1.9 9.731 3.076l6.752 2.137 20.52-12.93c11.287-7.112 20.938-13.148 21.447-13.414 1.16-.605 2.337-.575 2.428.063.048.334-3.601 3.711-17.037 15.77-9.906 8.889-17.134 15.524-17.184 15.771-.088.437-1.149 16.867-1.143 17.7.004.58.421.59 1.645.036.598-.27 2.01-1.475 4.014-3.427 1.7-1.656 3.894-3.785 4.874-4.733l1.782-1.722 9.127 6.725c5.02 3.7 9.534 6.905 10.031 7.124 1.35.596 3.1.429 3.952-.377a6.04 6.04 0 0 0 1.02-1.344c.21-.408 1.033-3.776 1.829-7.483C95.166 36.573 96.06 32.23 95.997 30.633c-.07-1.745-.381-2.364-1.603-3.192-1.471-.997.274-1.602-38.688 13.391Z" fill="#fff"/></svg>
